X:1
T:Gumama
%%score [ 1 2 3 ]
L:1/8
Q:1/4=80
M:4/4
K:C
V:1 treble nm="S"
V:2 treble nm="A"
V:3 bass nm="B"
V:1
|: G2 (GE) G2 (GA) | G2 F2 E/ E E/- E2 | (EG) (FE) D2 (DF) | E2 D2 C/ C C/- C2 :: %4
w: Ay Yah- * we, Ay _|Yah- we gu- ma- ma _|Ay _ Yah- * we, Ay _|Yah- we gu- ma- ma _|
 (3E E E (3C C C B,/ B, B,/- B,2 | z B, B, D C/ C C/- C2 | (3E E E (3C C C B,/ B, B,/- B,2 | %7
w: Gu- ma- ma, gu- ma- ma, gu- ma- ma _|Ay Yah- we gu- ma- ma _|Gu- ma- ma, gu- ma- ma, gu- ma- ma _|
 z B, B, D C/ C C/- C2 :| %8
w: Ay Yah- we gu- ma- ma _|
V:2
|: E2 (EC) E2 (EF) | E2 D2 C/ C C/- C2 | (CE) (DC) B,2 (B,D) | C2 A,2 G,/ G, G,/- G,2 :: %4
w: Ay Yah- * we, Ay _|Yah- we gu- ma- ma _|Ay _ Yah- * we, Ay _|Yah- we gu- ma- ma _|
 (3C C C (3A, A, A, G,/ G, G,/- G,2 | z G, G, A, G,/ G, G,/- G,2 | %6
w: Gu- ma- ma, gu- ma- ma, gu- ma- ma _|Ay Yah- we gu- ma- ma _|
 (3C C C (3A, A, A, G,/ G, G,/- G,2 | z G, G, A, G,/ G, G,/- G,2 :| %8
w: Gu- ma- ma, gu- ma- ma, gu- ma- ma _|Ay Yah- we gu- ma- ma _|
V:3
|: C2 (CG,) C2 (CD) | C2 A,2 G,/ G, G,/- G,2 | (G,C) (A,G,) G,2 (F,A,) | G,2 F,2 E,/ E, E,/- E,2 :: %4
w: Ay Yah- * we, Ay _|Yah- we gu- ma- ma _|Ay _ Yah- * we, Ay _|Yah- we gu- ma- ma _|
 (3G, G, G, (3E, E, E, D,/ D, D,/- D,2 | z D, D, F, E,/ E, E,/- E,2 | %6
w: Gu- ma- ma, gu- ma- ma, gu- ma- ma _|Ay Yah- we gu- ma- ma _|
 (3G, G, G, (3E, E, E, D,/ D, D,/- D,2 | z D, D, F, E,/ E, E,/- E,2 :| %8
w: Gu- ma- ma, gu- ma- ma, gu- ma- ma _|Ay Yah- we gu- ma- ma _|

